X:1
T:Title
%%score { ( 1 2 3 ) | ( 4 5 ) }
L:1/8
Q:1/4=81
M:6/8
K:Db
V:1 treble nm="Grand Piano"
V:2 treble 
V:3 treble 
V:4 bass 
V:5 bass 
V:1
 .F3 .F3 | .A3 F3 | .[DF]>ED .[CE]3 | .A3 F3 | .d3 .c3 | .B3 A3 | .=G3 z3 | A6 | .F3 .F3 | .A3 F3 | %10
w: Mrs.~C.~H.~Morris *||||||||||
 .[DF]>ED .[CE]3 | .A3 F3 | FF/F/F FFF | .E3 d3 | .[A,DFA]3 [A,DF]2 [CE] | [D,F,A,D]6 | %16
w: ||||||
[M:4/4][K:treble][Q:1/4=94] z4 A2 z2 | [FA]4 [DF]4 | z4 [DB]2[K:bass] [DB]2 | B4 A4 | %20
w: ||||
 [Fd]4 [Fd]2 [Fc]2 | [B,FB]2 [B,FB]2 [B,FA]2 [B,FA]2 | [B,EG]4 [B,DF]4 | [CE]6 z2 | %24
w: ||||
 [GA]4 [GB]2 [Gc]2 | [Fd]4 [DF]4 | [=DF]3 [DF] [DB]2 [B,DF]2 | [B,FA]4 [B,EG]4 | %28
w: ||||
 [B,E=G]4 [B,EG]2 [B,EG]2 | [A,EA]2 [A,EA]2 [A,DF]2[K:bass] [F,A,D]2 | [G,CE]4[K:treble] [CA]4 | %31
w: |||
 A4[K:bass] z4[K:treble] | z4 c4 | [Fd]6 z2 |] %34
w: |||
V:2
 .F,>FF z DB | z A,D z .D2 | x6 | z z/ A/D z DA, | z z/ d/d z FF | z GB z FF | z z/ F/E EF=G | %7
 z CE GFE | .F,>FF z DB | z A,D z .D2 | x6 | z z/ A/D z DA, | x6 | z DD z GG | x6 | x6 | %16
[M:4/4][K:treble] [DFA]4 [CE]F A2 | x8 | [DB]3 [DB] z[K:bass] A,, z C, | x8 | x8 | x8 | x8 | x8 | %24
 x8 | x8 | x8 | x8 | x8 | x6[K:bass] x2 | x4[K:treble] x4 | z2 z[K:bass] C, z2[K:treble] [DGB]2 | %32
 [DFA]4 E2 G2 | x8 |] %34
V:3
 z .A,2 z3 | x6 | x6 | z .A,2 z3 | z .F2 z3 | x6 | z .E2 z3 | x6 | z .A,2 z3 | x6 | x6 | %11
 z .A,2 z3 | x6 | x6 | x6 | x6 |[M:4/4][K:treble] x8 | x8 | x5[K:bass] x3 | x8 | x8 | x8 | x8 | %23
 x8 | x8 | x8 | x8 | x8 | x8 | x6[K:bass] x2 | x4[K:treble] x4 | x3[K:bass] x3[K:treble] x2 | x8 | %33
 x8 |] %34
V:4
 [D,,D,]2 D [D,,D,]2 A, | .[D,,D,F,]3 [D,,D,]2 A, | z A,F, z A,E, | .[D,,D,F,]3 .[D,,D,]3 | %4
 z[K:treble] [A,D][A,DF][K:bass] z [A,C][A,C] | z [B,D][B,DG] z [A,D][A,D] | %6
 z [=G,B,D][G,B,D] z [G,B,DE][G,B,DE] | .A,3 z3 | [D,,D,]2 D [D,,D,]2 A, | %9
 .[D,,D,F,]3 [D,,D,]2 A, | z A,F, z A,E, | .F,3 z3 | z [A,D][A,D] z [=A,C][A,CE] | %13
 z [F,B,][F,B,] z [B,D][B,D] | z[K:treble] BG[K:bass] A,,2 G, | D,,6 | %16
[M:4/4] D,4 z[K:treble] D [A,EG]2 | [D,D]4 [D,A,]4 | [G,,G,]3 [G,,G,] .[G,,G,]2 .[B,,G,]2 | %19
 [D,G,D]4 [D,F,D]4 | [B,,B,]4 [B,,B,]2 [C,=A,]2 | D,2 D,2 =D,2 D,2 | E,4 F,2 =G,2 | A,6 z2 | %24
 [A,,A,]4 [A,,A,]2 [A,,A,]2 | [D,A,]4 [D,A,]4 | [B,,B,]3 [B,,F,] [B,,F,]2 B,,2 | E,4 E,4 | %28
 E,4 D,2 D,2 | C,2 C,2 D,2 D,2 | A,,4 [A,,G,]4 | [D,F,D]4 B,,2 G,,2 | A,,4 [A,,A,]4 | [D,A,]6 z2 |] %34
V:5
 x6 | x6 | .A,,,3 .A,,,3 | x6 | .[D,,D,]3[K:treble][K:bass] .[F,,F,]3 | .[G,,G,]3 .[F,,F,]3 | %6
 .[E,,E,]3 .[E,,E,]3 | A,,6 | x6 | x6 | .A,,3 .A,,3 | [D,,D,]6 | .[D,,D,]3 .[F,,F,]3 | %13
 .B,,3 .[G,,G,]3 | .A,,3[K:treble][K:bass] z3 | x6 |[M:4/4] z4 A,2[K:treble] z2 | x8 | x8 | x8 | %20
 x8 | x8 | x8 | x8 | x8 | x8 | x8 | x8 | x8 | x8 | x8 | x8 | x8 | x8 |] %34

